dist/svgs/unicons/line/suitcase.svg

<svg xmlns="http://www.w3.org/2000/svg" viewBox="0 0 24 24"><path d="M19 6.5h-3v-1a3 3 0 00-3-3h-2a3 3 0 00-3 3v1H5a3 3 0 00-3 3v9a3 3 0 003 3h14a3 3 0 003-3v-9a3 3 0 00-3-3zm-9-1a1 1 0 011-1h2a1 1 0 011 1v1h-4zm10 13a1 1 0 01-1 1H5a1 1 0 01-1-1v-5.05h3v1.05a1 1 0 002 0v-1.05h6v1.05a1 1 0 002 0v-1.05h3zm0-7H4v-2a1 1 0 011-1h14a1 1 0 011 1z"/></svg>

<svg xmlns="http://www.w3.org/2000/svg" viewBox="0 0 24 24"><path d="M19,6.5H16v-1a3,3,0,0,0-3-3H11a3,3,0,0,0-3,3v1H5a3,3,0,0,0-3,3v9a3,3,0,0,0,3,3H19a3,3,0,0,0,3-3v-9A3,3,0,0,0,19,6.5Zm-9-1a1,1,0,0,1,1-1h2a1,1,0,0,1,1,1v1H10Zm10,13a1,1,0,0,1-1,1H5a1,1,0,0,1-1-1V13.45H7V14.5a1,1,0,0,0,2,0V13.45h6V14.5a1,1,0,0,0,2,0V13.45h3Zm0-7H4V9.5a1,1,0,0,1,1-1H19a1,1,0,0,1,1,1Z"/></svg>
